X: 13631
T: Foghorn
R: hornpipe
M: 4/4
K: Dmajor
A^GAF DFAc|dz ec dcAF|Gz BG F2AF|FE GE DcBG|
(3AcA FA DFAc|dz ec Aceg|gffe eddc|dz f2 d3z:|
e3c Aceg|gfaf d3z|(3Bcd Ad (3Bcd A2|Bgfe dc (3dcB|
A2 FA DFAz|dcec Aceg|gffe eddc|(3dcd f2 d3z:|

